images/twitter.svg

<svg width="28" height="28" viewBox="0 0 28 28" fill="none" xmlns="http://www.w3.org/2000/svg">
<rect x="0.000976562" width="28" height="28" rx="14" fill="#1DA1F2"/>
<path d="M20.8621 10.9727C20.8621 11.1258 20.8621 11.2789 20.8621 11.4102C20.8621 15.9383 17.4059 21.1664 11.1059 21.1664C9.15898 21.1664 7.36523 20.5977 5.83398 19.6352C6.09648 19.657 6.38086 19.6789 6.64336 19.6789C8.24023 19.6789 9.72773 19.132 10.909 18.2133C9.39961 18.1914 8.13086 17.1852 7.71523 15.8289C7.93398 15.8727 8.13086 15.8945 8.37148 15.8945C8.67773 15.8945 8.98398 15.8508 9.26836 15.7633C7.69336 15.457 6.51211 14.0789 6.51211 12.4164C6.51211 12.3945 6.51211 12.3945 6.51211 12.3727C6.97148 12.6352 7.49648 12.7883 8.06523 12.8102C7.14648 12.1977 6.53398 11.1477 6.53398 9.94453C6.53398 9.31016 6.70898 8.71953 6.99336 8.21641C8.67773 10.2945 11.2152 11.6508 14.059 11.8039C13.9934 11.5633 13.9715 11.2789 13.9715 11.0164C13.9715 9.11328 15.5027 7.58203 17.4059 7.58203C18.3902 7.58203 19.2871 7.99766 19.8996 8.65391C20.6871 8.50078 21.409 8.21641 22.0871 7.82266C21.8246 8.63203 21.2777 9.28828 20.5777 9.72578C21.2777 9.63828 21.934 9.46328 22.5465 9.17891C22.109 9.87891 21.5402 10.4914 20.8621 10.9727Z" fill="white"/>
</svg>

<svg xmlns="http://www.w3.org/2000/svg" width="28" height="28" fill="none"><rect width="28" height="28" x=".001" fill="#1DA1F2" rx="14"/><path fill="#fff" d="M20.862 10.973v.437c0 4.528-3.456 9.756-9.756 9.756a9.85 9.85 0 0 1-5.272-1.53c.262.021.547.043.81.043a6.94 6.94 0 0 0 4.265-1.466 3.395 3.395 0 0 1-3.194-2.384c.219.044.416.066.656.066.307 0 .613-.044.897-.132a3.405 3.405 0 0 1-2.756-3.347v-.043c.46.262.984.415 1.553.437a3.44 3.44 0 0 1-1.531-2.865c0-.635.175-1.225.46-1.729a9.76 9.76 0 0 0 7.065 3.588 3 3 0 0 1-.087-.788 3.426 3.426 0 0 1 3.434-3.434c.984 0 1.881.416 2.494 1.072a7 7 0 0 0 2.187-.831 3.54 3.54 0 0 1-1.51 1.903 6.6 6.6 0 0 0 1.97-.547 6.3 6.3 0 0 1-1.685 1.794"/></svg>
